X: 39
M: 4/4
L: 1/8
K: G
(3DEF | G2EG D3E | GGAG Bdd2 | "a."d2ed B2A2 | GBAG EGG2 |
z2 | g2ed B2A2 | G>BAG Bdd2 | g2ed B2A2 | GBAF Dz z2 |
g2ed B2A2 | G>BAG Bdd2 | e6- e>f | g2ed B2A2 | GBAF Dz |]
P: VAR:
"a."d2e2 B3A || "b."AF |] y8 y8 y8 y8 y8 y8 y8 y8


